X:1
T:Quick Step. JMP.001
M:6/8
L:1/8
Q:3/8=110
C:â€4â€³
S:John Miller MS. Perth, 1799.(for the fife)
R:.March
O:Scotland
A:Perth
N:Rhythm in bars 1, 2 and 3 is shown as
N:dotted crochet, quaver not crochet, quaver
N:1 â€“ these two notes shown, apparently in pencil,
N:as both C C and E F â€“ c/f brs 1, 2
N:End bar lines missing â€“ page damaged
H:1799
Z:vmp.C. Graebe
K:D major
â€œ_Key G in MS,see noteâ€A | d2d c2c | d2d e2f | g2f e2d | (dcd) (ecA) |!
d2d â€œ1â€c2c| d2d e2f | (gab) agf | edc d2 :|!
|: a | aga A2a | A2 a agf | gfg G2g |G2g gfe |!
d2d c2c | d2d e2f | gab agf | edc d2 ğŸ˜

